svg/gcp-functions.svg

<svg viewBox="0 0 20 20" xmlns="http://www.w3.org/2000/svg">
<rect width="100%" height="100%" fill="#4285F4"/>
<path d="M4.83682 6.45442L6.6729 4.5343L5.44807 3.25342L2.99609 5.81762V13.0667L5.44807 15.6309L6.6729 14.35L4.83682 12.4299V6.45442Z" fill="white"/>
<path d="M7.34414 10.3506C7.82356 10.3506 8.21221 9.94415 8.21221 9.44278C8.21221 8.94142 7.82356 8.53498 7.34414 8.53498C6.86471 8.53498 6.47607 8.94142 6.47607 9.44278C6.47607 9.94415 6.86471 10.3506 7.34414 10.3506Z" fill="white"/>
<path d="M10.5555 8.8008C10.8945 9.15532 10.8945 9.73011 10.5555 10.0846C10.2165 10.4391 9.66686 10.4391 9.32785 10.0846C8.98885 9.73011 8.98885 9.15532 9.32785 8.8008C9.66686 8.44628 10.2165 8.44628 10.5555 8.8008Z" fill="white"/>
<path d="M13.1534 10.0842C13.4924 9.72964 13.4924 9.15485 13.1534 8.80033C12.8144 8.44581 12.2648 8.44581 11.9258 8.80033C11.5868 9.15485 11.5868 9.72964 11.9258 10.0842C12.2648 10.4387 12.8144 10.4387 13.1534 10.0842Z" fill="white"/>
<path d="M13.1991 4.5343L14.4239 3.25342L16.8759 5.81762V13.0667L14.4239 15.6309L13.1991 14.35L15.0351 12.4299V6.45442L13.1991 4.5343Z" fill="white"/>
<path fill-rule="evenodd" clip-rule="evenodd" d="M16.8778 13.0669V5.81787L20 9.08242V20H9.53188L5.45109 15.6323L6.67592 14.3514L4.83984 12.4313V6.45588L6.67592 4.53577L11.7914 9.89751C11.9413 10.1685 12.2213 10.3508 12.5421 10.3508C13.022 10.3508 13.4101 9.9449 13.4101 9.443C13.4101 9.32147 13.3869 9.20481 13.3451 9.09908L15.0371 10.8685V12.4301L13.201 14.3502L14.4258 15.6311L16.8778 13.0669ZM6.47837 9.443C6.47837 9.9449 6.8665 10.3508 7.34644 10.3508C7.82638 10.3508 8.21451 9.9449 8.21451 9.443C8.21451 8.94109 7.82638 8.5352 7.34644 8.5352C6.8665 8.5352 6.47837 8.94109 6.47837 9.443ZM9.07561 9.443C9.07561 9.9449 9.46374 10.3508 9.94368 10.3508C10.4236 10.3508 10.8117 9.9449 10.8117 9.443C10.8117 8.94109 10.4236 8.5352 9.94368 8.5352C9.46374 8.5352 9.07561 8.94109 9.07561 9.443Z" fill="#3E7AE3"/>
</svg>

<svg xmlns="http://www.w3.org/2000/svg" viewBox="0 0 20 20">
  <rect width="100%" height="100%" fill="#4285F4"/>
  <path fill="#fff" d="m4.84 6.45 1.83-1.92-1.22-1.28L3 5.82v7.25l2.45 2.56 1.22-1.28-1.83-1.92V6.45Z"/>
  <path fill="#fff" d="M7.34 10.35c.48 0 .87-.4.87-.9s-.39-.92-.87-.92-.86.41-.86.91.38.91.86.91ZM10.56 8.8c.33.36.33.93 0 1.28a.84.84 0 0 1-1.23 0 .94.94 0 0 1 0-1.28.84.84 0 0 1 1.23 0ZM13.15 10.08a.94.94 0 0 0 0-1.28.84.84 0 0 0-1.22 0 .94.94 0 0 0 0 1.28c.33.36.88.36 1.22 0Z"/>
  <path fill="#fff" d="m13.2 4.53 1.22-1.28 2.46 2.57v7.25l-2.46 2.56-1.22-1.28 1.84-1.92V6.45L13.2 4.53Z"/>
  <path fill="#3E7AE3" fill-rule="evenodd" d="M16.88 13.07V5.82L20 9.08V20H9.53l-4.08-4.37 1.23-1.28-1.84-1.92V6.46l1.84-1.92 5.11 5.36c.15.27.43.45.75.45.48 0 .87-.4.87-.9a.94.94 0 0 0-.06-.35l1.69 1.77v1.56l-1.84 1.92 1.23 1.28 2.45-2.56ZM6.48 9.44c0 .5.39.91.87.91s.86-.4.86-.9-.38-.91-.86-.91-.87.4-.87.9Zm2.6 0c0 .5.38.91.86.91s.87-.4.87-.9-.39-.91-.87-.91-.86.4-.86.9Z" clip-rule="evenodd"/>
</svg>
